app/assets/images/heroicons/solid/trash.svg

<svg width="24" height="24" viewBox="0 0 24 24" fill="none" xmlns="http://www.w3.org/2000/svg">
<path fill-rule="evenodd" clip-rule="evenodd" d="M16.5001 4.47819V4.70498C17.4548 4.79237 18.4017 4.90731 19.3398 5.04898C19.6871 5.10143 20.0332 5.15755 20.3781 5.2173C20.7863 5.28799 21.0598 5.67617 20.9891 6.0843C20.9184 6.49244 20.5302 6.76598 20.1221 6.69529C20.0525 6.68323 19.9829 6.67132 19.9131 6.65957L18.9077 19.7301C18.7875 21.2931 17.4842 22.5 15.9166 22.5H8.08369C6.51608 22.5 5.21276 21.2931 5.09253 19.7301L4.0871 6.65957C4.0174 6.67132 3.94774 6.68323 3.87813 6.69529C3.47 6.76598 3.08183 6.49244 3.01113 6.0843C2.94043 5.67617 3.21398 5.28799 3.62211 5.2173C3.96701 5.15755 4.31315 5.10143 4.66048 5.04898C5.59858 4.90731 6.5454 4.79237 7.50012 4.70498V4.47819C7.50012 2.91371 8.71265 1.57818 10.3156 1.52691C10.8749 1.50901 11.4365 1.5 12.0001 1.5C12.5638 1.5 13.1253 1.50901 13.6847 1.52691C15.2876 1.57818 16.5001 2.91371 16.5001 4.47819ZM10.3635 3.02614C10.9069 3.00876 11.4525 3 12.0001 3C12.5478 3 13.0934 3.00876 13.6367 3.02614C14.3913 3.05028 15.0001 3.68393 15.0001 4.47819V4.59082C14.0078 4.53056 13.0075 4.5 12.0001 4.5C10.9928 4.5 9.99249 4.53056 9.00012 4.59082V4.47819C9.00012 3.68393 9.6089 3.05028 10.3635 3.02614ZM10.0087 8.97118C9.9928 8.55727 9.64436 8.23463 9.23045 8.25055C8.81654 8.26647 8.49391 8.61492 8.50983 9.02882L8.85599 18.0288C8.8719 18.4427 9.22035 18.7654 9.63426 18.7494C10.0482 18.7335 10.3708 18.3851 10.3549 17.9712L10.0087 8.97118ZM15.4895 9.02882C15.5054 8.61492 15.1828 8.26647 14.7689 8.25055C14.355 8.23463 14.0065 8.55727 13.9906 8.97118L13.6444 17.9712C13.6285 18.3851 13.9512 18.7335 14.3651 18.7494C14.779 18.7654 15.1274 18.4427 15.1433 18.0288L15.4895 9.02882Z" fill="#0F172A"/>
</svg>

<svg xmlns="http://www.w3.org/2000/svg" viewBox="0 0 24 24" fill="currentColor" aria-hidden="true" data-slot="icon">
  <path fill-rule="evenodd" d="M16.5 4.478v.227a48.816 48.816 0 0 1 3.878.512.75.75 0 1 1-.256 1.478l-.209-.035-1.005 13.07a3 3 0 0 1-2.991 2.77H8.084a3 3 0 0 1-2.991-2.77L4.087 6.66l-.209.035a.75.75 0 0 1-.256-1.478A48.567 48.567 0 0 1 7.5 4.705v-.227c0-1.564 1.213-2.9 2.816-2.951a52.662 52.662 0 0 1 3.369 0c1.603.051 2.815 1.387 2.815 2.951Zm-6.136-1.452a51.196 51.196 0 0 1 3.273 0C14.39 3.05 15 3.684 15 4.478v.113a49.488 49.488 0 0 0-6 0v-.113c0-.794.609-1.428 1.364-1.452Zm-.355 5.945a.75.75 0 1 0-1.5.058l.347 9a.75.75 0 1 0 1.499-.058l-.346-9Zm5.48.058a.75.75 0 1 0-1.498-.058l-.347 9a.75.75 0 0 0 1.5.058l.345-9Z" clip-rule="evenodd"/>
</svg>
